X:1
T:Pretty Cubit, a retreat
T:Pretty Cupid
M:3/4
L:1/8
R:Retreat March
S:Thomas Nixon Jr./Joseph Long music copybook (c. 1776- 1778, p. 20)
F: http://tunearch.org/wiki/Lads_are_all_Come_Back_Again_(The)	2016-8-9
N: Nixon (1762-1842) was a 13 yr. old from Framingham, Ct., who accompanied
N: his father to the opening conflicts of the American Revolution at Lexington
N: and Concord, and who served as a fifer in the army until 1780.
K:G
GB A>c Bd|GB AG FD|GB A>c Bd|efge d2:|
|:Bd ef gd|Bd ef g2|gd ec BG|Bd BA G2:|]
